X:15866
T:Spring Gardens Hornpipe. BF13.068
M:4/4
Q:160
C:"A great favourite"
S:J.Lishman()MS,c1825,Lakes,Browne Coll.
R:Hornpipe
O:England
A:Lakes
Z:vmp.Chris Partington
K:Bb
de|fbfd gecA|BdBF dBFD|EBcd edcB|(3ABc (3BAG F2de|!
fbfd gecA|BdBF dBFD|Egfe dcBA|c2B2B2::!
AB|c=Bcd eddf|g^fga bBd=f|bagf edcB|(3ABc (3BAG F2de|!
fbfd gecA|BdBF dBFD|Egfe dcBA|c2B2B2:|]
